X: 41817
T: Vidarvalsen
R: waltz
M: 3/4
K: Gmajor
GE|D2 BD d2|D2 BD d2|cB Ac eg|gf ge d2|
D2 BD d2|D2 BD d2|cB AD FA|G4:|
|:GA|B2 ba g2|f3f ef|g4 a2|c4 cB|
A2 AG AB|c2 cA ce|g2 ge ce|d3c Bc|
d2 ba g2|f3f ef|g4 a2|c4 cB|
A2 AG AB|c2 cD FA|G2 AG AB|G4:|

